src/assets/expertise/cloud/instagram.svg

<?xml version="1.0" encoding="UTF-8"?>
<svg width="24px" height="24px" viewBox="0 0 24 24" version="1.1" xmlns="http://www.w3.org/2000/svg" xmlns:xlink="http://www.w3.org/1999/xlink">
    <!-- Generator: sketchtool 60 (101010) - https://sketch.com -->
    <title>7DD87736-D47C-4D6B-A677-0144CBD54819</title>
    <desc>Created with sketchtool.</desc>
    <g id="Symbols" stroke="none" stroke-width="1" fill="none" fill-rule="evenodd">
        <g id="web/footer" transform="translate(-1072.000000, -176.000000)">
            <g id="icons/social/instagram">
                <g transform="translate(1072.000000, 176.000000)">
                    <g id="icons/social/facebook">
                        <circle id="Oval" fill="#CACCD8" cx="12" cy="12" r="12"></circle>
                        <path d="M12.0015616,8.43724348 C10.0151701,8.43724348 8.41293921,10.0398319 8.41293921,12.0266667 C8.41293921,14.0135014 10.0151701,15.6160899 12.0015616,15.6160899 C13.9879532,15.6160899 15.590184,14.0135014 15.590184,12.0266667 C15.590184,10.0398319 13.9879532,8.43724348 12.0015616,8.43724348 Z M12.0015616,14.3602603 C10.717903,14.3602603 9.66848857,13.3137357 9.66848857,12.0266667 C9.66848857,10.7395976 10.7147797,9.693073 12.0015616,9.693073 C13.2883436,9.693073 14.3346347,10.7395976 14.3346347,12.0266667 C14.3346347,13.3137357 13.2852203,14.3602603 12.0015616,14.3602603 L12.0015616,14.3602603 Z M16.57401,8.29041764 C16.57401,8.75588679 16.1992192,9.12763732 15.7369771,9.12763732 C15.2716118,9.12763732 14.8999442,8.75276284 14.8999442,8.29041764 C14.8999442,7.82807245 15.2747351,7.45319796 15.7369771,7.45319796 C16.1992192,7.45319796 16.57401,7.82807245 16.57401,8.29041764 Z M18.9508087,9.14013314 C18.8977133,8.01863364 18.6416062,7.02521626 17.8201896,6.2067403 C17.0018963,5.38826435 16.0087005,5.13210012 14.8874512,5.07586894 C13.7318461,5.01026591 10.2681539,5.01026591 9.1125488,5.07586894 C7.99442276,5.12897616 7.00122699,5.38514039 6.17981037,6.20361635 C5.35839375,7.02209231 5.10540993,8.01550969 5.0491913,9.13700919 C4.9836029,10.2928722 4.9836029,13.7573372 5.0491913,14.9132002 C5.10228667,16.0346997 5.35839375,17.0281171 6.17981037,17.846593 C7.00122699,18.665069 7.9912995,18.9212332 9.1125488,18.9774644 C10.2681539,19.0430674 13.7318461,19.0430674 14.8874512,18.9774644 C16.0087005,18.9243572 17.0018963,18.6681929 17.8201896,17.846593 C18.638483,17.0281171 18.8945901,16.0346997 18.9508087,14.9132002 C19.0163971,13.7573372 19.0163971,10.2959961 18.9508087,9.14013314 Z M17.4578918,16.1534099 C17.2142777,16.7657049 16.7426659,17.237422 16.1273843,17.4842144 C15.2060234,17.849717 13.0197434,17.7653702 12.0015616,17.7653702 C10.9833798,17.7653702 8.79397658,17.846593 7.87573898,17.4842144 C7.26358059,17.2405459 6.79196877,16.7688289 6.54523146,16.1534099 C6.17981037,15.2318435 6.26413832,13.0450757 6.26413832,12.0266667 C6.26413832,11.0082577 6.18293363,8.81836587 6.54523146,7.89992339 C6.78884551,7.2876284 7.26045733,6.81591134 7.87573898,6.56911897 C8.79709983,6.20361635 10.9833798,6.28796311 12.0015616,6.28796311 C13.0197434,6.28796311 15.2091467,6.2067403 16.1273843,6.56911897 C16.7395427,6.81278739 17.2111545,7.28450444 17.4578918,7.89992339 C17.8233129,8.82148983 17.7389849,11.0082577 17.7389849,12.0266667 C17.7389849,13.0450757 17.8233129,15.2349675 17.4578918,16.1534099 Z" id="Shape" fill="#FFFFFF"></path>
                    </g>
                    <g id="instagram" transform="translate(5.000000, 5.000000)"></g>
                </g>
            </g>
        </g>
    </g>
</svg>

<svg xmlns="http://www.w3.org/2000/svg" width="24" height="24" viewBox="0 0 24 24">
    <g fill="none" fill-rule="evenodd">
        <g>
            <g>
                <g>
                    <g transform="translate(-1072 -5604) translate(0 5428) translate(1072 176)">
                        <circle cx="12" cy="12" r="12" fill="#CACCD8"/>
                        <path fill="#FFF" d="M12.002 8.437c-1.987 0-3.59 1.603-3.59 3.59 0 1.987 1.603 3.59 3.59 3.59 1.986 0 3.588-1.603 3.588-3.59 0-1.987-1.602-3.59-3.588-3.59zm0 5.923c-1.284 0-2.334-1.046-2.334-2.333 0-1.287 1.047-2.334 2.334-2.334 1.286 0 2.333 1.047 2.333 2.334 0 1.287-1.05 2.333-2.333 2.333zm4.572-6.07c0 .466-.375.838-.837.838-.465 0-.837-.375-.837-.838 0-.462.375-.837.837-.837.462 0 .837.375.837.837zm2.377.85c-.053-1.121-.31-2.115-1.13-2.933-.82-.819-1.812-1.075-2.934-1.131-1.155-.066-4.619-.066-5.774 0-1.119.053-2.112.31-2.933 1.128-.822.818-1.075 1.812-1.13 2.933-.066 1.156-.066 4.62 0 5.776.052 1.122.308 2.115 1.13 2.934.821.818 1.811 1.074 2.933 1.13 1.155.066 4.619.066 5.774 0 1.122-.053 2.115-.309 2.933-1.13.818-.819 1.075-1.812 1.13-2.934.066-1.156.066-4.617 0-5.773zm-1.493 7.013c-.244.613-.715 1.084-1.33 1.331-.922.366-3.108.281-4.126.281-1.019 0-3.208.082-4.126-.28-.612-.244-1.084-.716-1.33-1.332-.366-.921-.282-3.108-.282-4.126 0-1.019-.081-3.209.281-4.127.244-.612.715-1.084 1.33-1.33.922-.366 3.108-.282 4.127-.282 1.018 0 3.207-.081 4.125.281.613.244 1.084.716 1.33 1.33.366.922.282 3.11.282 4.128 0 1.018.084 3.208-.281 4.126z"/>
                    </g>
                </g>
            </g>
        </g>
    </g>
</svg>
